logos/gallant_lab.svg

<?xml version="1.0" encoding="UTF-8"?>
<!DOCTYPE svg PUBLIC "-//W3C//DTD SVG 1.1//EN" "http://www.w3.org/Graphics/SVG/1.1/DTD/svg11.dtd">
<svg xmlns="http://www.w3.org/2000/svg" version="1.1" width="286px" height="86px" style="shape-rendering:geometricPrecision; text-rendering:geometricPrecision; image-rendering:optimizeQuality; fill-rule:evenodd; clip-rule:evenodd" xmlns:xlink="http://www.w3.org/1999/xlink">
<g><path style="opacity:1" fill="#363b40" d="M -0.5,-0.5 C 94.8333,-0.5 190.167,-0.5 285.5,-0.5C 285.5,28.1667 285.5,56.8333 285.5,85.5C 190.167,85.5 94.8333,85.5 -0.5,85.5C -0.5,56.8333 -0.5,28.1667 -0.5,-0.5 Z"/></g>
<g><path style="opacity:1" fill="#f1f1f2" d="M 23.5,28.5 C 28.449,27.9589 33.1156,28.7922 37.5,31C 39.2189,32.8705 40.2189,35.0372 40.5,37.5C 37.4503,38.0768 35.4503,36.9101 34.5,34C 23.1257,31.0322 18.2924,35.5322 20,47.5C 22.8504,53.6822 27.3504,55.5155 33.5,53C 35.4506,51.2658 36.4506,49.0991 36.5,46.5C 33.8333,46.5 31.1667,46.5 28.5,46.5C 28.5,45.1667 28.5,43.8333 28.5,42.5C 32.5,42.5 36.5,42.5 40.5,42.5C 41.4912,54.1739 36.1579,59.3406 24.5,58C 16.8295,53.3532 13.9962,46.5198 16,37.5C 17.6141,33.7229 20.1141,30.7229 23.5,28.5 Z"/></g>
<g><path style="opacity:1" fill="#fefefe" d="M 65.5,28.5 C 66.5,28.5 67.5,28.5 68.5,28.5C 68.5,38.1667 68.5,47.8333 68.5,57.5C 67.5,57.5 66.5,57.5 65.5,57.5C 65.5,47.8333 65.5,38.1667 65.5,28.5 Z"/></g>
<g><path style="opacity:1" fill="#d8d9da" d="M 65.5,28.5 C 66.5676,27.5655 67.901,27.2322 69.5,27.5C 69.8274,37.6806 69.494,47.6806 68.5,57.5C 68.5,47.8333 68.5,38.1667 68.5,28.5C 67.5,28.5 66.5,28.5 65.5,28.5 Z"/></g>
<g><path style="opacity:1" fill="#fefefe" d="M 74.5,28.5 C 75.5,28.5 76.5,28.5 77.5,28.5C 77.5,38.1667 77.5,47.8333 77.5,57.5C 76.5,57.5 75.5,57.5 74.5,57.5C 74.5,47.8333 74.5,38.1667 74.5,28.5 Z"/></g>
<g><path style="opacity:1" fill="#d8d9da" d="M 74.5,28.5 C 75.5676,27.5655 76.901,27.2322 78.5,27.5C 78.8274,37.6806 78.494,47.6806 77.5,57.5C 77.5,47.8333 77.5,38.1667 77.5,28.5C 76.5,28.5 75.5,28.5 74.5,28.5 Z"/></g>
<g><path style="opacity:1" fill="#f6f6f6" d="M 180.5,27.5 C 181.833,27.5 183.167,27.5 184.5,27.5C 184.18,30.8984 184.513,34.2317 185.5,37.5C 190.804,34.3603 195.304,35.3603 199,40.5C 199.81,45.2574 199.476,49.9241 198,54.5C 193.855,57.9786 189.522,58.3119 185,55.5C 183.951,57.1066 182.451,57.7733 180.5,57.5C 180.5,47.5 180.5,37.5 180.5,27.5 Z"/></g>
<g><path style="opacity:1" fill="#f7f7f7" d="M 138.5,28.5 C 139.833,28.5 141.167,28.5 142.5,28.5C 142.5,36.8333 142.5,45.1667 142.5,53.5C 147.167,53.5 151.833,53.5 156.5,53.5C 156.5,54.8333 156.5,56.1667 156.5,57.5C 150.5,57.5 144.5,57.5 138.5,57.5C 138.5,47.8333 138.5,38.1667 138.5,28.5 Z"/></g>
<g><path style="opacity:1" fill="#f6f6f6" d="M 126.5,30.5 C 127.833,30.5 129.167,30.5 130.5,30.5C 130.5,32.1667 130.5,33.8333 130.5,35.5C 131.833,35.5 133.167,35.5 134.5,35.5C 134.5,36.8333 134.5,38.1667 134.5,39.5C 133.167,39.5 131.833,39.5 130.5,39.5C 130.334,43.8461 130.501,48.1794 131,52.5C 132.011,53.3366 133.178,53.67 134.5,53.5C 134.5,54.8333 134.5,56.1667 134.5,57.5C 131.635,57.9452 129.135,57.2785 127,55.5C 126.501,50.1771 126.334,44.8437 126.5,39.5C 125.5,39.5 124.5,39.5 123.5,39.5C 123.5,38.5 123.5,37.5 123.5,36.5C 124.5,36.5 125.5,36.5 126.5,36.5C 126.5,34.5 126.5,32.5 126.5,30.5 Z"/></g>
<g><path style="opacity:1" fill="#f0f1f1" d="M 48.5,35.5 C 53.1264,34.7004 56.9597,36.0337 60,39.5C 60.4995,45.4908 60.6662,51.4908 60.5,57.5C 58.549,57.7733 57.049,57.1066 56,55.5C 52.2007,58.1327 48.3673,58.1327 44.5,55.5C 42.2094,50.4154 43.5427,46.9154 48.5,45C 51.146,44.5026 53.8127,44.3359 56.5,44.5C 56.582,41.4151 55.082,39.7485 52,39.5C 49.4383,41.2183 46.605,42.2183 43.5,42.5C 43.3505,41.448 43.5172,40.448 44,39.5C 45.6667,38.2668 47.1667,36.9335 48.5,35.5 Z"/></g>
<g><path style="opacity:1" fill="#f0f1f1" d="M 86.5,35.5 C 91.1264,34.7004 94.9597,36.0337 98,39.5C 98.4995,45.4908 98.6662,51.4908 98.5,57.5C 96.549,57.7733 95.049,57.1066 94,55.5C 90.2007,58.1327 86.3673,58.1327 82.5,55.5C 80.2094,50.4154 81.5427,46.9154 86.5,45C 89.146,44.5026 91.8127,44.3359 94.5,44.5C 94.582,41.4151 93.082,39.7485 90,39.5C 87.4383,41.2183 84.605,42.2183 81.5,42.5C 81.3505,41.448 81.5172,40.448 82,39.5C 83.6667,38.2668 85.1667,36.9335 86.5,35.5 Z"/></g>
<g><path style="opacity:1" fill="#eeefef" d="M 103.5,35.5 C 105.451,35.2267 106.951,35.8934 108,37.5C 112.14,34.6082 115.974,34.9416 119.5,38.5C 120.46,44.7734 120.793,51.1067 120.5,57.5C 119.167,57.5 117.833,57.5 116.5,57.5C 116.666,52.1563 116.499,46.8229 116,41.5C 113.333,38.8333 110.667,38.8333 108,41.5C 107.501,46.8229 107.334,52.1563 107.5,57.5C 106.167,57.5 104.833,57.5 103.5,57.5C 103.5,50.1667 103.5,42.8333 103.5,35.5 Z"/></g>
<g><path style="opacity:1" fill="#f0f1f1" d="M 163.5,35.5 C 168.126,34.7004 171.96,36.0337 175,39.5C 175.499,45.4908 175.666,51.4908 175.5,57.5C 173.549,57.7733 172.049,57.1066 171,55.5C 167.201,58.1327 163.367,58.1327 159.5,55.5C 157.209,50.4154 158.543,46.9154 163.5,45C 166.146,44.5026 168.813,44.3359 171.5,44.5C 171.582,41.4151 170.082,39.7485 167,39.5C 164.438,41.2183 161.605,42.2183 158.5,42.5C 158.351,41.448 158.517,40.448 159,39.5C 160.667,38.2668 162.167,36.9335 163.5,35.5 Z"/></g>
<g><path style="opacity:1" fill="#f3f3f3" d="M 217.5,35.5 C 229.026,35.5452 233.193,41.2119 230,52.5C 229.167,54.6667 227.667,56.1667 225.5,57C 222.5,57.6667 219.5,57.6667 216.5,57C 214.185,55.8906 212.685,54.0573 212,51.5C 209.904,44.569 211.737,39.2356 217.5,35.5 Z"/></g>
<g><path style="opacity:1" fill="#eeefef" d="M 234.5,35.5 C 236.451,35.2267 237.951,35.8934 239,37.5C 240.789,35.771 242.956,35.1043 245.5,35.5C 245.5,36.8333 245.5,38.1667 245.5,39.5C 242.956,39.1043 240.789,39.771 239,41.5C 238.501,46.8229 238.334,52.1563 238.5,57.5C 237.167,57.5 235.833,57.5 234.5,57.5C 234.5,50.1667 234.5,42.8333 234.5,35.5 Z"/></g>
<g><path style="opacity:1" fill="#f2f2f3" d="M 251.5,35.5 C 254.807,35.0632 257.807,35.7298 260.5,37.5C 261.842,35.9951 263.508,35.3285 265.5,35.5C 265.666,43.84 265.5,52.1733 265,60.5C 263.833,61.6667 262.667,62.8333 261.5,64C 257.833,64.6667 254.167,64.6667 250.5,64C 248.393,62.7365 247.393,60.9032 247.5,58.5C 250.605,58.7817 253.438,59.7817 256,61.5C 260.051,60.7923 261.718,58.459 261,54.5C 258.083,56.3933 254.916,56.8933 251.5,56C 249.333,55.1667 247.833,53.6667 247,51.5C 245.21,45.0732 246.71,39.7398 251.5,35.5 Z"/></g>
<g><path style="opacity:1" fill="#3c4146" d="M 187.5,39.5 C 194.809,39.6663 197.309,43.3329 195,50.5C 191.717,55.8092 188.384,55.8092 185,50.5C 183.812,46.2586 184.645,42.5919 187.5,39.5 Z"/></g>
<g><path style="opacity:1" fill="#3b4045" d="M 218.5,39.5 C 225.809,39.6663 228.309,43.3329 226,50.5C 222.76,55.7007 219.426,55.7007 216,50.5C 214.812,46.2586 215.645,42.5919 218.5,39.5 Z"/></g>
<g><path style="opacity:1" fill="#393e43" d="M 253.5,39.5 C 260.314,39.49 262.814,42.8233 261,49.5C 257.612,53.4034 254.279,53.4034 251,49.5C 249.861,45.5789 250.695,42.2456 253.5,39.5 Z"/></g>
<g><path style="opacity:1" fill="#3e4348" d="M 48.5,48.5 C 51.2469,48.1866 53.9135,48.52 56.5,49.5C 54.1841,54.8481 51.1841,55.5148 47.5,51.5C 47.685,50.4163 48.0183,49.4163 48.5,48.5 Z"/></g>
<g><path style="opacity:1" fill="#3e4348" d="M 86.5,48.5 C 89.2469,48.1866 91.9135,48.52 94.5,49.5C 92.1841,54.8481 89.1841,55.5148 85.5,51.5C 85.685,50.4163 86.0183,49.4163 86.5,48.5 Z"/></g>
<g><path style="opacity:1" fill="#3e4348" d="M 163.5,48.5 C 166.247,48.1866 168.914,48.52 171.5,49.5C 169.184,54.8481 166.184,55.5148 162.5,51.5C 162.685,50.4163 163.018,49.4163 163.5,48.5 Z"/></g>
<g><path style="opacity:1" fill="#f5f6f6" d="M 204.5,52.5 C 205.833,52.5 207.167,52.5 208.5,52.5C 208.99,54.9484 208.157,56.615 206,57.5C 203.389,56.5001 202.889,54.8334 204.5,52.5 Z"/></g>
</svg>

<svg xmlns="http://www.w3.org/2000/svg" width="286" height="86" style="shape-rendering:geometricPrecision;text-rendering:geometricPrecision;image-rendering:optimizeQuality;fill-rule:evenodd;clip-rule:evenodd"><path style="opacity:1" fill="#363b40" d="M-.5-.5h286v86H-.5v-86z"/><path style="opacity:1" fill="#f1f1f2" d="M23.5 28.5c4.949-.541 9.616.292 14 2.5 1.719 1.87 2.719 4.037 3 6.5-3.05.577-5.05-.59-6-3.5-11.374-2.968-16.208 1.532-14.5 13.5 2.85 6.182 7.35 8.016 13.5 5.5 1.95-1.734 2.95-3.9 3-6.5h-8v-4h12c.991 11.674-4.342 16.84-16 15.5-7.67-4.647-10.504-11.48-8.5-20.5 1.614-3.777 4.114-6.777 7.5-9z"/><path style="opacity:1" fill="#fefefe" d="M65.5 28.5h3v29h-3v-29z"/><path style="opacity:1" fill="#d8d9da" d="M65.5 28.5c1.068-.934 2.401-1.268 4-1 .327 10.18-.006 20.18-1 30v-29h-3z"/><path style="opacity:1" fill="#fefefe" d="M74.5 28.5h3v29h-3v-29z"/><path style="opacity:1" fill="#d8d9da" d="M74.5 28.5c1.068-.934 2.401-1.268 4-1 .327 10.18-.006 20.18-1 30v-29h-3z"/><path style="opacity:1" fill="#f6f6f6" d="M180.5 27.5h4a25.878 25.878 0 0 0 1 10c5.304-3.14 9.804-2.14 13.5 3 .81 4.757.476 9.424-1 14-4.145 3.479-8.478 3.812-13 1-1.049 1.607-2.549 2.273-4.5 2v-30z"/><path style="opacity:1" fill="#f7f7f7" d="M138.5 28.5h4v25h14v4h-18v-29z"/><path style="opacity:1" fill="#f6f6f6" d="M126.5 30.5h4v5h4v4h-4a84.9 84.9 0 0 0 .5 13c1.011.837 2.178 1.17 3.5 1v4c-2.865.445-5.365-.221-7.5-2a128.508 128.508 0 0 1-.5-16h-3v-3h3v-6z"/><path style="opacity:1" fill="#f0f1f1" d="M48.5 35.5c4.626-.8 8.46.534 11.5 4 .5 5.99.666 11.99.5 18-1.951.273-3.451-.393-4.5-2-3.8 2.633-7.633 2.633-11.5 0-2.29-5.085-.957-8.585 4-10.5a32.437 32.437 0 0 1 8-.5c.082-3.085-1.418-4.752-4.5-5-2.562 1.718-5.395 2.718-8.5 3a4.932 4.932 0 0 1 .5-3 32.614 32.614 0 0 0 4.5-4zM86.5 35.5c4.626-.8 8.46.534 11.5 4 .5 5.99.666 11.99.5 18-1.951.273-3.451-.393-4.5-2-3.8 2.633-7.633 2.633-11.5 0-2.29-5.085-.957-8.585 4-10.5a32.437 32.437 0 0 1 8-.5c.082-3.085-1.418-4.752-4.5-5-2.562 1.718-5.395 2.718-8.5 3a4.932 4.932 0 0 1 .5-3 32.614 32.614 0 0 0 4.5-4z"/><path style="opacity:1" fill="#eeefef" d="M103.5 35.5c1.951-.273 3.451.393 4.5 2 4.14-2.892 7.974-2.558 11.5 1a96.188 96.188 0 0 1 1 19h-4a128.508 128.508 0 0 0-.5-16c-2.667-2.667-5.333-2.667-8 0a128.508 128.508 0 0 0-.5 16h-4v-22z"/><path style="opacity:1" fill="#f0f1f1" d="M163.5 35.5c4.626-.8 8.46.534 11.5 4 .499 5.99.666 11.99.5 18-1.951.273-3.451-.393-4.5-2-3.799 2.633-7.633 2.633-11.5 0-2.291-5.085-.957-8.585 4-10.5a32.438 32.438 0 0 1 8-.5c.082-3.085-1.418-4.752-4.5-5-2.562 1.718-5.395 2.718-8.5 3a4.934 4.934 0 0 1 .5-3 32.58 32.58 0 0 0 4.5-4z"/><path style="opacity:1" fill="#f3f3f3" d="M217.5 35.5c11.526.045 15.693 5.712 12.5 17-.833 2.167-2.333 3.667-4.5 4.5-3 .667-6 .667-9 0-2.315-1.11-3.815-2.943-4.5-5.5-2.096-6.931-.263-12.264 5.5-16z"/><path style="opacity:1" fill="#eeefef" d="M234.5 35.5c1.951-.273 3.451.393 4.5 2 1.789-1.729 3.956-2.396 6.5-2v4c-2.544-.396-4.711.271-6.5 2a128.508 128.508 0 0 0-.5 16h-4v-22z"/><path style="opacity:1" fill="#f2f2f3" d="M251.5 35.5c3.307-.437 6.307.23 9 2 1.342-1.505 3.008-2.172 5-2a313 313 0 0 1-.5 25l-3.5 3.5a30.499 30.499 0 0 1-11 0c-2.107-1.264-3.107-3.097-3-5.5 3.105.282 5.938 1.282 8.5 3 4.051-.708 5.718-3.041 5-7-2.917 1.893-6.084 2.393-9.5 1.5-2.167-.833-3.667-2.333-4.5-4.5-1.79-6.427-.29-11.76 4.5-16z"/><path style="opacity:1" fill="#3c4146" d="M187.5 39.5c7.309.166 9.809 3.833 7.5 11-3.283 5.31-6.616 5.31-10 0-1.188-4.241-.355-7.908 2.5-11z"/><path style="opacity:1" fill="#3b4045" d="M218.5 39.5c7.309.166 9.809 3.833 7.5 11-3.24 5.2-6.574 5.2-10 0-1.188-4.241-.355-7.908 2.5-11z"/><path style="opacity:1" fill="#393e43" d="M253.5 39.5c6.814-.01 9.314 3.323 7.5 10-3.388 3.903-6.721 3.903-10 0-1.139-3.921-.305-7.254 2.5-10z"/><path style="opacity:1" fill="#3e4348" d="M48.5 48.5c2.747-.313 5.413.02 8 1-2.316 5.348-5.316 6.015-9 2a10.028 10.028 0 0 1 1-3zM86.5 48.5c2.747-.313 5.413.02 8 1-2.316 5.348-5.316 6.015-9 2a10.028 10.028 0 0 1 1-3zM163.5 48.5c2.747-.313 5.414.02 8 1-2.316 5.348-5.316 6.015-9 2a10.02 10.02 0 0 1 1-3z"/><path style="opacity:1" fill="#f5f6f6" d="M204.5 52.5h4c.49 2.448-.343 4.115-2.5 5-2.611-1-3.111-2.667-1.5-5z"/></svg>
